pitch-netidee/src/pix/no.svg

<?xml version="1.0" encoding="UTF-8" standalone="no"?>
<!-- Created with Inkscape (http://www.inkscape.org/) -->

<svg
   xmlns:dc="http://purl.org/dc/elements/1.1/"
   xmlns:cc="http://creativecommons.org/ns#"
   xmlns:rdf="http://www.w3.org/1999/02/22-rdf-syntax-ns#"
   xmlns:svg="http://www.w3.org/2000/svg"
   xmlns="http://www.w3.org/2000/svg"
   xmlns:sodipodi="http://sodipodi.sourceforge.net/DTD/sodipodi-0.dtd"
   xmlns:inkscape="http://www.inkscape.org/namespaces/inkscape"
   width="158.32666mm"
   height="163.97112mm"
   viewBox="0 0 560.99998 581.00001"
   id="svg3468"
   version="1.1"
   inkscape:version="0.91 r13725"
   sodipodi:docname="no.svg">
  <defs
     id="defs3470" />
  <sodipodi:namedview
     id="base"
     pagecolor="#ffffff"
     bordercolor="#666666"
     borderopacity="1.0"
     inkscape:pageopacity="0.0"
     inkscape:pageshadow="2"
     inkscape:zoom="0.35"
     inkscape:cx="-107.35798"
     inkscape:cy="371.92882"
     inkscape:document-units="px"
     inkscape:current-layer="layer1"
     showgrid="false"
     inkscape:window-width="1536"
     inkscape:window-height="803"
     inkscape:window-x="-8"
     inkscape:window-y="-8"
     inkscape:window-maximized="1"
     fit-margin-top="0"
     fit-margin-left="0"
     fit-margin-right="0"
     fit-margin-bottom="0" />
  <metadata
     id="metadata3473">
    <rdf:RDF>
      <cc:Work
         rdf:about="">
        <dc:format>image/svg+xml</dc:format>
        <dc:type
           rdf:resource="http://purl.org/dc/dcmitype/StillImage" />
        <dc:title></dc:title>
      </cc:Work>
    </rdf:RDF>
  </metadata>
  <g
     inkscape:label="Ebene 1"
     inkscape:groupmode="layer"
     id="layer1"
     transform="translate(-168.07227,-323.29102)">
    <path
       style="fill:#ff0000;fill-opacity:1;fill-rule:evenodd;stroke:#000000;stroke-width:1px;stroke-linecap:butt;stroke-linejoin:miter;stroke-opacity:1"
       d="M 303.71429,801.79077 C 416.09524,689.40982 528.47619,577.02887 640.85714,464.64792 630.22833,446.23827 619.59951,427.82863 608.9707,409.41898 488.41362,529.97606 367.85654,650.53315 247.29946,771.09023 c 18.80494,10.23351 37.60989,20.46703 56.41483,30.70054 z"
       id="path3490"
       inkscape:connector-curvature="0" />
    <path
       style="fill:#ff0000;fill-rule:evenodd;stroke:#000000;stroke-width:1px;stroke-linecap:butt;stroke-linejoin:miter;stroke-opacity:1"
       d="m 448.57227,323.79102 a 280,290 0 0 0 -280,290 280,290 0 0 0 280,290 280,290 0 0 0 280,-290 280,290 0 0 0 -280,-290 z m 0,45.63476 a 235.93803,244.3644 0 0 1 23.55273,1.2207 235.93803,244.3644 0 0 1 23.32031,3.6504 235.93803,244.3644 0 0 1 22.84961,6.04296 235.93803,244.3644 0 0 1 22.1543,8.37696 235.93803,244.3644 0 0 1 21.23633,10.625 235.93803,244.3644 0 0 1 20.10742,12.76562 235.93803,244.3644 0 0 1 18.77344,14.7832 235.93803,244.3644 0 0 1 17.25586,16.6504 235.93803,244.3644 0 0 1 15.5664,18.3496 235.93803,244.3644 0 0 1 13.71875,19.86915 235.93803,244.3644 0 0 1 11.73438,21.1875 235.93803,244.3644 0 0 1 9.63281,22.29687 235.93803,244.3644 0 0 1 7.4375,23.17969 235.93803,244.3644 0 0 1 5.16406,23.83398 235.93803,244.3644 0 0 1 2.8418,24.24805 235.93803,244.3644 0 0 1 0.5918,17.28516 235.93803,244.3644 0 0 1 -1.17969,24.39453 235.93803,244.3644 0 0 1 -3.52344,24.15234 235.93803,244.3644 0 0 1 -5.83594,23.66797 235.93803,244.3644 0 0 1 -8.08593,22.94531 235.93803,244.3644 0 0 1 -10.25782,21.99414 235.93803,244.3644 0 0 1 -12.32812,20.82422 235.93803,244.3644 0 0 1 -14.27149,19.44531 235.93803,244.3644 0 0 1 -16.07617,17.87305 235.93803,244.3644 0 0 1 -17.71875,16.11914 235.93803,244.3644 0 0 1 -19.18359,14.20899 235.93803,244.3644 0 0 1 -20.45703,12.15429 235.93803,244.3644 0 0 1 -21.52735,9.97852 235.93803,244.3644 0 0 1 -22.3789,7.70117 235.93803,244.3644 0 0 1 -23.01172,5.34961 235.93803,244.3644 0 0 1 -23.41211,2.94336 235.93803,244.3644 0 0 1 -16.68945,0.61133 235.93803,244.3644 0 0 1 -23.55469,-1.22071 235.93803,244.3644 0 0 1 -23.32031,-3.65039 235.93803,244.3644 0 0 1 -22.84961,-6.04297 235.93803,244.3644 0 0 1 -22.1543,-8.375 235.93803,244.3644 0 0 1 -21.23633,-10.625 235.93803,244.3644 0 0 1 -20.10547,-12.76757 235.93803,244.3644 0 0 1 -18.77539,-14.78125 235.93803,244.3644 0 0 1 -17.25586,-16.65039 235.93803,244.3644 0 0 1 -15.5664,-18.35157 235.93803,244.3644 0 0 1 -13.7168,-19.86718 235.93803,244.3644 0 0 1 -11.73633,-21.18946 235.93803,244.3644 0 0 1 -9.63281,-22.29492 235.93803,244.3644 0 0 1 -7.4375,-23.17969 235.93803,244.3644 0 0 1 -5.16406,-23.83398 235.93803,244.3644 0 0 1 -2.8418,-24.24805 235.93803,244.3644 0 0 1 -0.5918,-17.28515 235.93803,244.3644 0 0 1 1.17969,-24.39649 235.93803,244.3644 0 0 1 3.52344,-24.15234 235.93803,244.3644 0 0 1 5.83594,-23.66602 235.93803,244.3644 0 0 1 8.08593,-22.94531 235.93803,244.3644 0 0 1 10.25781,-21.99414 235.93803,244.3644 0 0 1 12.32813,-20.82422 235.93803,244.3644 0 0 1 14.27148,-19.44531 235.93803,244.3644 0 0 1 16.07618,-17.87305 235.93803,244.3644 0 0 1 17.71875,-16.12109 235.93803,244.3644 0 0 1 19.18359,-14.20703 235.93803,244.3644 0 0 1 20.45703,-12.1543 235.93803,244.3644 0 0 1 21.52734,-9.97852 235.93803,244.3644 0 0 1 22.38086,-7.70117 235.93803,244.3644 0 0 1 23.01172,-5.34961 235.93803,244.3644 0 0 1 23.41211,-2.94336 235.93803,244.3644 0 0 1 16.68946,-0.61328 z"
       id="path3476"
       inkscape:connector-curvature="0" />
  </g>
</svg>

<?xml version="1.0" encoding="UTF-8" standalone="no"?>
<!-- Created with Inkscape (http://www.inkscape.org/) -->

<svg
   xmlns:dc="http://purl.org/dc/elements/1.1/"
   xmlns:cc="http://creativecommons.org/ns#"
   xmlns:rdf="http://www.w3.org/1999/02/22-rdf-syntax-ns#"
   xmlns:svg="http://www.w3.org/2000/svg"
   xmlns="http://www.w3.org/2000/svg"
   xmlns:sodipodi="http://sodipodi.sourceforge.net/DTD/sodipodi-0.dtd"
   xmlns:inkscape="http://www.inkscape.org/namespaces/inkscape"
   width="210mm"
   height="297mm"
   viewBox="0 0 744.09448819 1052.3622047"
   id="svg3468"
   version="1.1"
   inkscape:version="0.91 r13725"
   sodipodi:docname="no#.svg">
  <defs
     id="defs3470" />
  <sodipodi:namedview
     id="base"
     pagecolor="#ffffff"
     bordercolor="#666666"
     borderopacity="1.0"
     inkscape:pageopacity="0.0"
     inkscape:pageshadow="2"
     inkscape:zoom="0.35"
     inkscape:cx="60.714286"
     inkscape:cy="520"
     inkscape:document-units="px"
     inkscape:current-layer="layer1"
     showgrid="false"
     inkscape:window-width="1536"
     inkscape:window-height="803"
     inkscape:window-x="-8"
     inkscape:window-y="-8"
     inkscape:window-maximized="1" />
  <metadata
     id="metadata3473">
    <rdf:RDF>
      <cc:Work
         rdf:about="">
        <dc:format>image/svg+xml</dc:format>
        <dc:type
           rdf:resource="http://purl.org/dc/dcmitype/StillImage" />
        <dc:title></dc:title>
      </cc:Work>
    </rdf:RDF>
  </metadata>
  <g
     inkscape:label="Ebene 1"
     inkscape:groupmode="layer"
     id="layer1">
    <path
       style="fill:#ff0000;fill-opacity:1;fill-rule:evenodd;stroke:#000000;stroke-width:1px;stroke-linecap:butt;stroke-linejoin:miter;stroke-opacity:1"
       d="M 303.71429,801.79077 C 416.09524,689.40982 528.47619,577.02887 640.85714,464.64792 630.22833,446.23827 619.59951,427.82863 608.9707,409.41898 488.41362,529.97606 367.85654,650.53315 247.29946,771.09023 c 18.80494,10.23351 37.60989,20.46703 56.41483,30.70054 z"
       id="path3490"
       inkscape:connector-curvature="0" />
    <path
       style="fill:#ff0000;fill-rule:evenodd;stroke:#000000;stroke-width:1px;stroke-linecap:butt;stroke-linejoin:miter;stroke-opacity:1"
       d="M 448.57227 323.79102 A 280 290 0 0 0 168.57227 613.79102 A 280 290 0 0 0 448.57227 903.79102 A 280 290 0 0 0 728.57227 613.79102 A 280 290 0 0 0 448.57227 323.79102 z M 448.57227 369.42578 A 235.93803 244.3644 0 0 1 472.125 370.64648 A 235.93803 244.3644 0 0 1 495.44531 374.29688 A 235.93803 244.3644 0 0 1 518.29492 380.33984 A 235.93803 244.3644 0 0 1 540.44922 388.7168 A 235.93803 244.3644 0 0 1 561.68555 399.3418 A 235.93803 244.3644 0 0 1 581.79297 412.10742 A 235.93803 244.3644 0 0 1 600.56641 426.89062 A 235.93803 244.3644 0 0 1 617.82227 443.54102 A 235.93803 244.3644 0 0 1 633.38867 461.89062 A 235.93803 244.3644 0 0 1 647.10742 481.75977 A 235.93803 244.3644 0 0 1 658.8418 502.94727 A 235.93803 244.3644 0 0 1 668.47461 525.24414 A 235.93803 244.3644 0 0 1 675.91211 548.42383 A 235.93803 244.3644 0 0 1 681.07617 572.25781 A 235.93803 244.3644 0 0 1 683.91797 596.50586 A 235.93803 244.3644 0 0 1 684.50977 613.79102 A 235.93803 244.3644 0 0 1 683.33008 638.18555 A 235.93803 244.3644 0 0 1 679.80664 662.33789 A 235.93803 244.3644 0 0 1 673.9707 686.00586 A 235.93803 244.3644 0 0 1 665.88477 708.95117 A 235.93803 244.3644 0 0 1 655.62695 730.94531 A 235.93803 244.3644 0 0 1 643.29883 751.76953 A 235.93803 244.3644 0 0 1 629.02734 771.21484 A 235.93803 244.3644 0 0 1 612.95117 789.08789 A 235.93803 244.3644 0 0 1 595.23242 805.20703 A 235.93803 244.3644 0 0 1 576.04883 819.41602 A 235.93803 244.3644 0 0 1 555.5918 831.57031 A 235.93803 244.3644 0 0 1 534.06445 841.54883 A 235.93803 244.3644 0 0 1 511.68555 849.25 A 235.93803 244.3644 0 0 1 488.67383 854.59961 A 235.93803 244.3644 0 0 1 465.26172 857.54297 A 235.93803 244.3644 0 0 1 448.57227 858.1543 A 235.93803 244.3644 0 0 1 425.01758 856.93359 A 235.93803 244.3644 0 0 1 401.69727 853.2832 A 235.93803 244.3644 0 0 1 378.84766 847.24023 A 235.93803 244.3644 0 0 1 356.69336 838.86523 A 235.93803 244.3644 0 0 1 335.45703 828.24023 A 235.93803 244.3644 0 0 1 315.35156 815.47266 A 235.93803 244.3644 0 0 1 296.57617 800.69141 A 235.93803 244.3644 0 0 1 279.32031 784.04102 A 235.93803 244.3644 0 0 1 263.75391 765.68945 A 235.93803 244.3644 0 0 1 250.03711 745.82227 A 235.93803 244.3644 0 0 1 238.30078 724.63281 A 235.93803 244.3644 0 0 1 228.66797 702.33789 A 235.93803 244.3644 0 0 1 221.23047 679.1582 A 235.93803 244.3644 0 0 1 216.06641 655.32422 A 235.93803 244.3644 0 0 1 213.22461 631.07617 A 235.93803 244.3644 0 0 1 212.63281 613.79102 A 235.93803 244.3644 0 0 1 213.8125 589.39453 A 235.93803 244.3644 0 0 1 217.33594 565.24219 A 235.93803 244.3644 0 0 1 223.17188 541.57617 A 235.93803 244.3644 0 0 1 231.25781 518.63086 A 235.93803 244.3644 0 0 1 241.51562 496.63672 A 235.93803 244.3644 0 0 1 253.84375 475.8125 A 235.93803 244.3644 0 0 1 268.11523 456.36719 A 235.93803 244.3644 0 0 1 284.19141 438.49414 A 235.93803 244.3644 0 0 1 301.91016 422.37305 A 235.93803 244.3644 0 0 1 321.09375 408.16602 A 235.93803 244.3644 0 0 1 341.55078 396.01172 A 235.93803 244.3644 0 0 1 363.07812 386.0332 A 235.93803 244.3644 0 0 1 385.45898 378.33203 A 235.93803 244.3644 0 0 1 408.4707 372.98242 A 235.93803 244.3644 0 0 1 431.88281 370.03906 A 235.93803 244.3644 0 0 1 448.57227 369.42578 z "
       id="path3476" />
  </g>
</svg>
